src/assets/outline/DocumentForward.svg

<svg width="24" height="24" viewBox="0 0 24 24"  xmlns="http://www.w3.org/2000/svg">
<path d="M11 17.7504C10.81 17.7504 10.62 17.6804 10.47 17.5304C10.18 17.2404 10.18 16.7604 10.47 16.4704L11.19 15.7504H7C6.59 15.7504 6.25 15.4104 6.25 15.0004C6.25 14.5904 6.59 14.2504 7 14.2504H11.19L10.47 13.5304C10.32 13.3804 10.25 13.1904 10.25 13.0004C10.25 12.8104 10.32 12.6204 10.47 12.4704C10.76 12.1804 11.24 12.1804 11.53 12.4704L13.53 14.4704C13.66 14.6004 13.73 14.7704 13.74 14.9304C13.74 14.9804 13.74 15.0404 13.74 15.0904C13.72 15.2304 13.66 15.3604 13.56 15.4804C13.55 15.4904 13.53 15.5104 13.52 15.5204L11.52 17.5204C11.38 17.6804 11.19 17.7504 11 17.7504Z" />
<path d="M15 22.75H9C3.57 22.75 1.25 20.43 1.25 15V9C1.25 3.57 3.57 1.25 9 1.25H14C14.41 1.25 14.75 1.59 14.75 2C14.75 2.41 14.41 2.75 14 2.75H9C4.39 2.75 2.75 4.39 2.75 9V15C2.75 19.61 4.39 21.25 9 21.25H15C19.61 21.25 21.25 19.61 21.25 15V10C21.25 9.59 21.59 9.25 22 9.25C22.41 9.25 22.75 9.59 22.75 10V15C22.75 20.43 20.43 22.75 15 22.75Z" />
<path d="M22 10.7505H18C14.58 10.7505 13.25 9.42048 13.25 6.00048V2.00048C13.25 1.70048 13.43 1.42048 13.71 1.31048C13.99 1.19048 14.31 1.26048 14.53 1.47048L22.53 9.47048C22.74 9.68048 22.81 10.0105 22.69 10.2905C22.57 10.5705 22.3 10.7505 22 10.7505ZM14.75 3.81048V6.00048C14.75 8.58048 15.42 9.25048 18 9.25048H20.19L14.75 3.81048Z" />
</svg>

<?xml version="1.0" encoding="UTF-8"?>
<svg width="24" height="24" viewBox="0 0 24 24" xmlns="http://www.w3.org/2000/svg">
 <path d="m11 17.75c-0.19 0-0.38-0.07-0.53-0.22-0.29-0.29-0.29-0.77 0-1.06l0.72-0.72h-4.19c-0.41 0-0.75-0.34-0.75-0.75s0.34-0.75 0.75-0.75h4.19l-0.72-0.72c-0.15-0.15-0.22-0.34-0.22-0.53s0.07-0.38 0.22-0.53c0.29-0.29 0.77-0.29 1.06 0l2 2c0.13 0.13 0.2 0.3 0.21 0.46v0.16c-0.02 0.14-0.08 0.27-0.18 0.39l-2.04 2.04c-0.14 0.16-0.33 0.23-0.52 0.23z"/>
 <path d="m15 22.75h-6c-5.43 0-7.75-2.32-7.75-7.75v-6c0-5.43 2.32-7.75 7.75-7.75h5c0.41 0 0.75 0.34 0.75 0.75s-0.34 0.75-0.75 0.75h-5c-4.61 0-6.25 1.64-6.25 6.25v6c0 4.61 1.64 6.25 6.25 6.25h6c4.61 0 6.25-1.64 6.25-6.25v-5c0-0.41 0.34-0.75 0.75-0.75s0.75 0.34 0.75 0.75v5c0 5.43-2.32 7.75-7.75 7.75z"/>
 <path d="m22 10.75h-4c-3.42 0-4.75-1.33-4.75-4.75v-4c0-0.3 0.18-0.58 0.46-0.69 0.28-0.12 0.6-0.05 0.82 0.16l8 8c0.21 0.21 0.28 0.54002 0.16 0.82002s-0.39 0.46-0.69 0.46zm-7.25-6.94v2.19c0 2.58 0.67 3.25 3.25 3.25h2.19l-5.44-5.44z"/>
</svg>
